!!!!SEGMENT: pl-sa--144-a-iii-44--001_anonim--msza-dominikalnska-kyrie.krn
!!!cenid: 17xx:1667
!!!COM: Anonim
!!!COM-rismID: pe30004985
!!!CDT:
!!!CNT:
!!!OPR: Msza Dominikańska
!!!OTL: Kyrie
!!!OMV: 001
!!!PDT:
!!!AGN: Sacred; Mass
!!!SMS-siglum: PL-SA
!!!SMS-shelfmark: 144/A III 44
!!!SMS-shelfwork: 001-001 M
!!!SMS-variant: Canto Primo PL-SA 144/A III 44:1
!!!SMS-altvar: Canto PL-SA 144/A III 44:9
!!!NIFC-rismSourceID: 1001035510
!!!NIFC-islandoraID:
!!!URL-pdf-islandora:
!!!URL-scan: https://bc.bdsandomierz.pl/dlibra/publication/1501/edition/1469/content @EN{Scan on Cyfrowa Biblioteka Diecezjalna w Sandomierzu} @PL{Skany w portalu Cyfrowa Biblioteka Diecezjalna w Sandomierzu}
!!!ONB-nifc: UWAGA: części Mszy: 1. Kyrie, 2. Laudamus, 3. Patrem, 4. Sanctus, 5. Agnus Dei
!!!AIN: 2 soprn
!!!key: F
**kern	**text	**kern	**text
*part2	*part2	*part1	*part1
*staff2	*staff2	*staff1	*staff1
*I"Canto 2do.	*	*I"Canto Primo_	*
*I'S 2	*	*I'S 1	*
*Isoprn	*	*Isoprn	*
*ICvox	*	*ICvox	*
*clefC1	*	*clefC1	*
*k[b-]	*	*k[b-]	*
*F:	*	*F:	*
*M2/2	*	*M2/2	*
*met(c|)	*	*met(c|)	*
=1	=1	=1	=1
1a	Ky-	1cc	Ky-
=2	=2	=2	=2
*2\right	*	*2\right	*
2f\	.	2a\	.
2a\	.	2cc\	.
=3	=3	=3	=3
2.b-\	.	2.dd\	.
4a\	ri-	4cc\	ri-
=4	=4	=4	=4
1g	-e	1b-	-e
=5	=5	=5	=5
2f/	E-	2a\	E-
2f/	.	2f/	.
=6	=6	=6	=6
1g	-ley-	1b-	-ley-
=7	=7	=7	=7
1f	ſon	1a	ſon
=8	=8	=8	=8
1e	Ky-	1g	Ky-
!	!	!LO:LB:g=original	!
=9	=9	=9	=9
1f	-ri-	1a	-ri-
=10	=10	=10	=10
2g/	-e	2b-\	-e
2f/	.	2f/	.
=11	=11	=11	=11
2g\	ley-	2b-\	ley-
2a\	.	2cc\	.
!LO:LB:g=original	!	!	!
=12	=12	=12	=12
2d/	.	2a\	.
2e/	.	2bn\	.
=13	=13	=13	=13
2e/	.	2cc\	.
4f/	.	4dd\	.
4e/	.	4cc\	.
=14	=14	=14	=14
2.d/	.	2.bn\	.
4d/	.	4b\	.
=15	=15	=15	=15
1e	ſon	1cc	ſon
=16	=16	=16	=16
(4f/	e-	(4a\	e-
4a/	.	4cc\	.
4f/	.	4a\	.
4g/)	.	4b-\)	.
!	!	!LO:LB:g=original	!
=17	=17	=17	=17
2.a\	-ley-	2.cc\	-ley-
4g\	.	4b-\	.
=18	=18	=18	=18
(4f/	.	(4a\	.
4g/	.	4b-\	.
4f/	.	4a\	.
4g/)	.	4b-\)	.
=19	=19	=19	=19
2.a\	.	2.cc\	.
4g\	.	4b-\	.
!LO:LB:g=original	!	!	!
=20	=20	=20	=20
2f/	.	2a\	.
4g/	.	4b-\	.
4a/	.	4cc\	.
=21	=21	=21	=21
4b-\	.	4dd\	.
4a\	.	4cc\	.
4g\	.	4b-\	.
4f\	.	4a\	.
=22	=22	=22	=22
2e/	.	2g\	.
2f/	.	2a\	.
=23	=23	=23	=23
1e	.	1g	.
=24	=24	=24	=24
1f	ſon.	1a	ſon
!	!	!LO:LB:g=original	!
=25||	=25||	=25||	=25||
1f	Chri-	1a	Chri-
=26	=26	=26	=26
1g	-ste	1b-	-ste
=27	=27	=27	=27
2g/	e-	2b-\	e-
2e/	.	2g\	.
=28	=28	=28	=28
1a	-ley-	1cc	-ley-
=29	=29	=29	=29
2a\	.	2cc\	.
2f/	.	2a\	.
=30	=30	=30	=30
1b-	.	1dd	.
=31	=31	=31	=31
2g\	.	2b-\	.
2e/	.	2g\	.
!LO:LB:g=original	!	!	!
=32	=32	=32	=32
1a	.	1cc	.
=33	=33	=33	=33
2f/	.	2a\	.
2f/	.	2f/	.
=34	=34	=34	=34
2.g\	.	2.b-\	.
4f\	.	4a\	.
=35	=35	=35	=35
1e	.	1g	.
!	!	!LO:LB:g=original	!
=36	=36	=36	=36
2f/	.	2a\	.
2a\	.	2cc\	.
=37	=37	=37	=37
1b-	.	1dd	.
=38	=38	=38	=38
2a\	.	2cc\	.
2f/	.	2a\	.
=39	=39	=39	=39
1g	.	1b-	.
=40	=40	=40	=40
2f/	.	2a\	.
4g/	.	4b-\	.
4f/	.	4a\	.
=41	=41	=41	=41
1e	.	1g	.
=42	=42	=42	=42
1f	son	1a	ſon
=43	=43	=43	=43
2f/	Ky-	2a\	Ky-
2f/	-ri-	2a\	-ri-
=44	=44	=44	=44
1g	-e	1b-	-e
!LO:LB:g=original	!	!	!
=45	=45	=45	=45
2a\	ley-	2cc\	ley-
2g\	.	2b-\	.
=46	=46	=46	=46
1f	.	1a	.
!	!	!LO:LB:g=original	!
=47	=47	=47	=47
2g\	.	2b-\	.
2f/	.	2a\	.
=48	=48	=48	=48
1e	-ſon	1g	-ſon
=49	=49	=49	=49
2a\	Ky-	2cc\	Ky-
2a\	-rie	2cc\	-ri-
=50	=50	=50	=50
1b-	e-	1dd	-e
=51	=51	=51	=51
2g\	.	2b-\	.
2e/	.	2g\	.
=52	=52	=52	=52
1a	-ley-	1cc	ley-
=53	=53	=53	=53
2f/	.	2a\	.
2f/	.	2f/	.
=54	=54	=54	=54
1g	.	1b-	.
=55	=55	=55	=55
2a\	.	2cc\	.
2g\	.	2b-\	.
=56	=56	=56	=56
1f	-ſon	1a	-ſon
=57	=57	=57	=57
2f/	Ky-	2a\	Ky-
2f/	-rie	2a\	-ri-
!LO:LB:g=original	!	!LO:LB:g=original	!
=58	=58	=58	=58
2d/	e-	2bn\	-e
2e/	.	2cc\	.
=59	=59	=59	=59
2e/	-ley-	2cc\	ley-
2d/	.	2bn\	.
=60	=60	=60	=60
1e	.	1cc	.
=61	=61	=61	=61
2f/	.	2a\	.
2g/	.	2b-X\	.
=62	=62	=62	=62
2e/	.	2g\	.
2f/	.	2a\	.
=63	=63	=63	=63
2a\	.	2cc\	.
2b-\	.	2dd\	.
=64	=64	=64	=64
2g\	.	2b-\	.
2a\	.	2cc\	.
=65	=65	=65	=65
2f/	.	2a\	.
2g/	.	2b-\	.
=66	=66	=66	=66
2e/	.	2g\	.
2f/	.	2a\	.
!	!	!LO:LB:g=original	!
=67	=67	=67	=67
2f/	.	2a\	.
2g/	.	2b-\	.
!LO:LB:g=original	!	!	!
=68	=68	=68	=68
2g\	.	2b-\	.
2f/	.	2a\	.
=69	=69	=69	=69
1f	-ſon	1a	-ſon
=70	=70	=70	=70
2r	.	2r	.
2a\	e-	2cc\	e-
=71	=71	=71	=71
1b-	-ley-	1dd	-ley-
=72	=72	=72	=72
1a	ſon	1cc	ſon
==	==	==	==
*-	*-	*-	*-
!!!system-decoration: [(s1,s2)]
!!!ENC: Tomasz Grochalski
!!!END: 2020-12-09
!!!ENC: Marta Lawrence
!!!END: 2022-03-27
